X: 38090
T: Splendid Isolation
R: reel
M: 4/4
K: Gdorian
|:~G3A FdcA|~G3A FGAc|dAcA GABc|dgg2 gfga|
b2af gfde|fgf/e/d cdcA|~G3A FGAc|1 dAcA ~G3F:|2 dAcA ~g3f||
|:g2ag fddf|gfdc Acdc|AGG2 Acdc|AGG2 F4|
FGGA FdcA|~G3A FGAc|dgg2 fgag|1 fdcA ~g3f:|2 fdcA G4||

